resources/svg/user-admin.svg

<svg xmlns="http://www.w3.org/2000/svg" viewBox="0 0 24 24" fill="currentColor"><path fill="none" stroke="currentColor" stroke-width="2" d="M8,11 C10.7614237,11 13,8.76142375 13,6 C13,3.23857625 10.7614237,1 8,1 C5.23857625,1 3,3.23857625 3,6 C3,8.76142375 5.23857625,11 8,11 Z M13.0233822,13.0234994 C11.7718684,11.7594056 10.0125018,11 8,11 C4,11 1,14 1,18 L1,23 L8,23 M10,19.5 C10,20.88 11.12,22 12.5,22 C13.881,22 15,20.88 15,19.5 C15,18.119 13.881,17 12.5,17 C11.12,17 10,18.119 10,19.5 L10,19.5 Z M23,15 L20,12 L14,18 M17.5,14.5 L20.5,17.5 L17.5,14.5 Z"/></svg>

<svg viewBox="0 0 24 24"><path fill="none" stroke="currentColor" stroke-width="2" d="M8 11A5 5 0 1 0 8 1a5 5 0 0 0 0 10zm5.023 2.023C11.772 11.76 10.013 11 8 11c-4 0-7 3-7 7v5h7m2-3.5a2.5 2.5 0 1 0 5.002-.002A2.5 2.5 0 0 0 10 19.5h0zM23 15l-3-3l-6 6m3.5-3.5l3 3l-3-3z"/></svg>
